apps/www/public/images/logos/frameworks/vue.svg

<svg width="61" height="61" viewBox="0 0 61 61" fill="none" xmlns="http://www.w3.org/2000/svg">
<path fill-rule="evenodd" clip-rule="evenodd" d="M43.0532 13.4531H50.1147L30.2756 47.8158L10.4365 13.4531H17.4978L30.2755 35.5845L43.0532 13.4531ZM42.1764 13.4531L30.2755 34.0659L18.3746 13.4531L25.6939 13.4531L30.2756 21.3888L34.8572 13.4531L42.1764 13.4531Z" fill="#7E7E7E"/>
</svg>

<svg xmlns="http://www.w3.org/2000/svg" width="61" height="61" fill="none" viewBox="0 0 61 61"><path fill="#7e7e7e" fill-rule="evenodd" d="M43.053 13.453h7.062l-19.84 34.363-19.838-34.363h7.06l12.779 22.132zm-.877 0-11.9 20.613-11.901-20.613h7.319l4.582 7.936 4.581-7.936z" clip-rule="evenodd"/></svg>
